X:561
T: WIE KOMMTS DASS DU SO TRAURIG BIST
N: E0531
O: Europa, Mitteleuropa, Schweiz
R: Liebes - Lied
M: 2/4
L: 1/16
K: F
FA | c3AB2G2 | AGABA2
FA | c3AB2G2 | A4z2
A2 | A3GG2B2 | B3AA2
c2 | fcAFGBAG | F4z2

@@@ Tune index: 4211
